X: 8833
T: Cuilcagh
R: polka
M: 2/4
K: Dmajor
|:Ad B/c/d|Ad F>F|GG FE|DB A2|
Ad B/c/d|Ad F>F|GG FE|D2 D2:|
|:Ad Ad|Bd G2|ce AB/c/|df A2|
Ad Ad|Bd G2|ce AB/c/|d2 d2:|

